X:12635
T:Mit Tantzen und mit Springen
C:Leonard Lechner
B:Lechner1586 no. 1
Z:Transcribed by Frank Nordberg - http://www.musicaviva.com
F:http://abc.musicaviva.com/tunes/lechner-leonard/lechner-1586-01/lechner-1586-01-voca4.abc
M:C|
L:1/4
K:Gdor
V:1
f2d>c|Bdcf|zcff|d4|
d2d>e|fgf>e|dcd2|=B4|d2B>A|GBAd|
zcff|d4|d2d>e|fgf>e|dcd2|=B3=B|
|:cddc|dABc|d3c|dABc|d2cB|c2zd|
cBAd|c4|[M:3/4][L:1/4]f2f|f2f|_ed2|f2f|f3|_ed2|
M:C|
L:1/4
[1=B3=B:|[2=B4|]
V:2
d2B>A|GBAd|zAcc|B2B2|
ABAG|c2d>e|^fg2f|g4|zfd>c|Bdcf|
zAcc|B2B2|ABAG|c2d>e|^fgf2|g4|
|:z2g2|f>ede|f2zg|f>ede|ffed|f2f2|
f4-|f4|[M:3/4][L:1/4]d2c|d2c|cA2|d2c|d2c-|cA2|
M:C|
L:1/4
[1d4:|[2d4|]
V:3
D2G>A|BB,FB,|zFAA|F2G2|
F>GAB|AGAB|AGA2|d4|D2G>A|BB,FB,|
zFAA|F2G2|F>GAB|AGAB|AGA2|d3G|
|:AFGE|D2zG|AFGE|D2zG|F>GAB|A2zB|
ABcB-|BA/G/A2|[M:3/4][L:1/4]B2A|B2A|G^F2|B2A|B2A G3/2^F//E//^F|
M:C|
L:1/4
[1G2zG:|[2G4|]
V:4
z4|z4|F,2F,F,|B,2G,2|
D>EFG|FED2-|D_ED2|G,4|z4|z4|
F,2F,F,|B,2G,2|D>EFG|FED2-|D_ED2|G,4|
|:z2zG|AFGE|D2zG|AFGE|D2zG|FED>E|
F4-|F4|[M:3/4][L:1/4]B,B,F|B,/C/D/E/F|CD2|B,B,F|B,/C/D/E/F|CD2|
M:C|
L:1/4
[1G,4:|[2G,4|]
W:
W:Mit Tantzen und mit Springen,
W:Mit Seitenspiel und Singen
W:Schaff ich mir jederzeit
W:Kurtzweil und gro\sse Freud.
W:
W:Ich lass die Seiten klingen,
W:Pallas die thut drein singen,
W:Gantz s\"u\sse Wort sie f\"uhrt,
W:Damit ihr Stimm sie ziert.
W:
W:Man sucht Freud in viel Dingen,
W:Ich aber bleib beim Singen
W:Und bey dem Seitenspiel,
W:Weiter frag ich nit wil.
W:
W:Dann kan man was f\"urbringen
W:Das fr\oehlich macht wie Singen
W:In Liebigkeit und Ehr
W:Nein, wahrlich, nimmermehr.
W:
W:
W:  From Musica Viva - http://www.musicaviva.com
W:  the Internet center for free sheet music downloads.
